16-manifest/assets/images/Logo.svg

<svg width="142" height="12" viewBox="0 0 142 12" fill="none" xmlns="http://www.w3.org/2000/svg">
<path d="M13.2301 0.129905V11.8701H11.2304V4.28687C11.2304 3.98376 11.2473 3.65629 11.281 3.30447L7.5938 9.97023C7.41943 10.2896 7.15224 10.4493 6.79224 10.4493H6.47161C6.11161 10.4493 5.84442 10.2896 5.67004 9.97023L1.94064 3.28011C1.95751 3.45873 1.97158 3.63464 1.98283 3.80785C1.99408 3.98106 1.9997 4.14073 1.9997 4.28687V11.8701H0V0.129905H1.71282C1.81408 0.129905 1.90126 0.132611 1.97439 0.138024C2.04751 0.143436 2.1122 0.156968 2.16845 0.178619C2.23033 0.20027 2.28377 0.235453 2.32877 0.284168C2.37939 0.332882 2.4272 0.397834 2.47221 0.479025L6.12567 6.99865C6.22129 7.17185 6.30848 7.35047 6.38723 7.53451C6.47161 7.71854 6.55317 7.90798 6.63192 8.10284C6.71067 7.90257 6.79224 7.71042 6.87661 7.52639C6.96099 7.33694 7.05099 7.15562 7.14661 6.98241L10.7495 0.479025C10.7945 0.397834 10.8423 0.332882 10.8929 0.284168C10.9435 0.235453 10.997 0.20027 11.0532 0.178619C11.1151 0.156968 11.1826 0.143436 11.2557 0.138024C11.3288 0.132611 11.416 0.129905 11.5173 0.129905H13.2301Z" fill="black"/>
<path d="M30.8361 7.43708L29.3511 3.5318C29.278 3.35859 29.202 3.15291 29.1233 2.91475C29.0445 2.67659 28.9658 2.41949 28.887 2.14344C28.8139 2.41949 28.738 2.6793 28.6592 2.92287C28.5805 3.16103 28.5045 3.36942 28.4314 3.54804L26.9548 7.43708H30.8361ZM34.844 11.8701H33.0889C32.8921 11.8701 32.7318 11.8241 32.608 11.7321C32.4843 11.6346 32.3914 11.5156 32.3296 11.3748L31.4183 8.9797H26.3642L25.453 11.3748C25.408 11.4993 25.3208 11.613 25.1914 11.7158C25.062 11.8187 24.9017 11.8701 24.7105 11.8701H22.9386L27.7395 0.129905H30.0514L34.844 11.8701Z" fill="black"/>
<path d="M54.8298 0.129905V11.8701H53.6654C53.4854 11.8701 53.3335 11.843 53.2098 11.7889C53.0916 11.7294 52.9763 11.6319 52.8638 11.4966L46.4935 3.66982C46.5272 4.02706 46.5441 4.35724 46.5441 4.66035V11.8701H44.5444V0.129905H45.7341C45.8297 0.129905 45.9113 0.135317 45.9788 0.146143C46.0519 0.151555 46.1138 0.167794 46.1644 0.194857C46.2206 0.216509 46.2741 0.251691 46.3247 0.300405C46.3753 0.343707 46.4316 0.403247 46.4935 0.479025L52.8891 8.33829C52.8723 8.14885 52.8582 7.96211 52.8469 7.77808C52.8357 7.59405 52.8301 7.42354 52.8301 7.26658V0.129905H54.8298Z" fill="black"/>
<path d="M68.2625 11.8701H65.9844V0.129905H68.2625V11.8701Z" fill="black"/>
<path d="M81.7099 1.86739V5.34235H86.283V7.08796H81.7099V11.8701H79.4317V0.129905H87.1268V1.86739H81.7099Z" fill="black"/>
<path d="M99.7056 1.86739V5.12314H103.975V6.80379H99.7056V10.1245H105.123V11.8701H97.4275V0.129905H105.123V1.86739H99.7056Z" fill="black"/>
<path d="M122.068 2.26522C122.001 2.37889 121.928 2.46279 121.849 2.51691C121.776 2.56563 121.683 2.58999 121.571 2.58999C121.452 2.58999 121.323 2.54939 121.182 2.4682C121.047 2.3816 120.884 2.28687 120.693 2.18403C120.502 2.08119 120.277 1.98917 120.018 1.90798C119.765 1.82138 119.464 1.77808 119.115 1.77808C118.8 1.77808 118.525 1.81597 118.288 1.89174C118.052 1.96211 117.852 2.06225 117.689 2.19215C117.532 2.32206 117.414 2.47903 117.335 2.66306C117.256 2.84168 117.217 3.03924 117.217 3.25575C117.217 3.5318 117.296 3.76184 117.453 3.94587C117.616 4.1299 117.83 4.28687 118.094 4.41678C118.359 4.54668 118.66 4.66306 118.997 4.7659C119.335 4.86874 119.681 4.9797 120.035 5.09878C120.389 5.21245 120.735 5.34777 121.073 5.50474C121.41 5.65629 121.711 5.85115 121.976 6.08931C122.24 6.32206 122.451 6.60893 122.608 6.94993C122.772 7.29093 122.853 7.70501 122.853 8.19215C122.853 8.7226 122.757 9.22057 122.566 9.68606C122.381 10.1461 122.105 10.5494 121.739 10.8958C121.379 11.2368 120.938 11.5074 120.415 11.7077C119.892 11.9026 119.292 12 118.617 12C118.229 12 117.847 11.9621 117.47 11.8863C117.093 11.816 116.73 11.7131 116.382 11.5778C116.038 11.4425 115.715 11.2801 115.411 11.0907C115.107 10.9012 114.837 10.6901 114.601 10.4574L115.268 9.41001C115.324 9.33424 115.397 9.27199 115.487 9.22328C115.577 9.16915 115.673 9.14208 115.774 9.14208C115.915 9.14208 116.067 9.19892 116.23 9.31258C116.393 9.42084 116.587 9.54263 116.812 9.67794C117.037 9.81326 117.298 9.93775 117.597 10.0514C117.9 10.1597 118.263 10.2138 118.685 10.2138C119.332 10.2138 119.832 10.0677 120.187 9.77537C120.541 9.47767 120.718 9.05277 120.718 8.50068C120.718 8.19215 120.637 7.94046 120.474 7.7456C120.316 7.55074 120.105 7.38836 119.841 7.25846C119.577 7.12314 119.276 7.00947 118.938 6.91746C118.601 6.82544 118.257 6.7253 117.909 6.61705C117.56 6.5088 117.217 6.37889 116.879 6.22733C116.542 6.07578 116.241 5.87821 115.977 5.63464C115.712 5.39107 115.498 5.08796 115.335 4.7253C115.178 4.35724 115.099 3.90528 115.099 3.36942C115.099 2.94181 115.186 2.52503 115.361 2.11908C115.541 1.71313 115.799 1.35318 116.137 1.03924C116.474 0.725304 116.891 0.473613 117.386 0.284168C117.881 0.0947225 118.449 0 119.09 0C119.81 0 120.474 0.108254 121.081 0.324763C121.689 0.541271 122.206 0.844384 122.634 1.2341L122.068 2.26522Z" fill="black"/>
<path d="M141.793 1.92422H138.114V11.8701H135.844V1.92422H132.165V0.129905H141.793V1.92422Z" fill="black"/>
</svg>

<svg xmlns="http://www.w3.org/2000/svg" width="142" height="12" fill="none"><path fill="#000" d="M13.23.13v11.74h-2V4.287c0-.303.017-.63.051-.983L7.594 9.97a.856.856 0 0 1-.802.48h-.32a.856.856 0 0 1-.802-.48L1.94 3.28c.018.179.032.355.043.528.011.173.017.333.017.479v7.583H0V.13h1.713c.101 0 .188.003.261.008a.68.68 0 0 1 .194.04.391.391 0 0 1 .16.106c.051.049.1.114.144.195l3.654 6.52c.095.173.182.351.261.536.085.184.166.373.245.568.079-.2.16-.393.245-.577.084-.19.174-.37.27-.544L10.749.48a.822.822 0 0 1 .144-.195.482.482 0 0 1 .16-.105.787.787 0 0 1 .203-.041 3.61 3.61 0 0 1 .261-.008h1.713ZM30.836 7.437l-1.485-3.905a8.325 8.325 0 0 1-.228-.617 19.524 19.524 0 0 1-.236-.772c-.073.276-.149.536-.228.78a9.72 9.72 0 0 1-.228.625l-1.476 3.89h3.881Zm4.008 4.433h-1.755a.786.786 0 0 1-.481-.138.92.92 0 0 1-.278-.357l-.912-2.395h-5.054l-.911 2.395a.78.78 0 0 1-.262.34.748.748 0 0 1-.48.155h-1.772l4.8-11.74h2.312l4.793 11.74ZM54.83.13v11.74h-1.165c-.18 0-.331-.027-.455-.081a1.116 1.116 0 0 1-.346-.292l-6.37-7.827c.033.357.05.687.05.99v7.21h-2V.13h1.19c.096 0 .177.005.245.016a.464.464 0 0 1 .185.049c.057.022.11.057.16.105.051.044.108.103.17.179l6.395 7.86c-.017-.19-.03-.377-.042-.56a8.46 8.46 0 0 1-.017-.512V.13h2ZM68.263 11.87h-2.279V.13h2.279v11.74ZM81.71 1.867v3.475h4.573v1.746H81.71v4.782h-2.278V.13h7.695v1.737H81.71ZM99.706 1.867v3.256h4.269v1.68h-4.27v3.321h5.418v1.746h-7.696V.13h7.696v1.737h-5.417ZM122.068 2.265a.774.774 0 0 1-.219.252.492.492 0 0 1-.278.073.79.79 0 0 1-.389-.122 7.524 7.524 0 0 0-.489-.284 3.869 3.869 0 0 0-.675-.276 2.797 2.797 0 0 0-.903-.13c-.315 0-.59.038-.827.114-.236.07-.436.17-.599.3-.157.13-.275.287-.354.471a1.45 1.45 0 0 0-.118.593c0 .276.079.506.236.69.163.184.377.34.641.47a6.1 6.1 0 0 0 .903.35c.338.103.684.214 1.038.333.354.113.7.249 1.038.406.337.151.638.346.903.584.264.233.475.52.632.86.164.342.245.756.245 1.243 0 .53-.096 1.029-.287 1.494-.185.46-.461.863-.827 1.21-.36.34-.801.611-1.324.812-.523.195-1.123.292-1.798.292-.388 0-.77-.038-1.147-.114a5.946 5.946 0 0 1-2.059-.796c-.304-.189-.574-.4-.81-.633l.667-1.047a.655.655 0 0 1 .219-.187.549.549 0 0 1 .287-.08c.141 0 .293.056.456.17.163.108.357.23.582.365.225.135.486.26.785.373.303.109.666.163 1.088.163.647 0 1.147-.146 1.502-.439.354-.297.531-.722.531-1.274 0-.309-.081-.56-.244-.755a1.85 1.85 0 0 0-.633-.488 4.663 4.663 0 0 0-.903-.34 30.649 30.649 0 0 1-1.029-.301 9.113 9.113 0 0 1-1.03-.39 3.34 3.34 0 0 1-.902-.592 2.744 2.744 0 0 1-.642-.91c-.157-.368-.236-.82-.236-1.356 0-.427.087-.844.262-1.25.18-.406.438-.766.776-1.08a3.802 3.802 0 0 1 1.249-.755c.495-.19 1.063-.284 1.704-.284.72 0 1.384.108 1.991.325.608.216 1.125.52 1.553.91l-.566 1.03ZM141.793 1.924h-3.679v9.946h-2.27V1.924h-3.679V.13h9.628v1.794Z"/></svg>
